X: 728
T: St. Catherine
P: Longways for as many as will
%R: reel
B: "The Dancing-Master: Containing Directions and Tunes for Dancing" printed by W. Pearson for John Walsh, London ca. 1709
S: 7: DMDfD http://digital.nls.uk/special-collections-of-printed-music/pageturner.cfm?id=89751228 p.288
Z: 2013 John Chambers <jc:trillian.mit.edu>
N: Repeats added to satisfy the dance instructions.
M: C|
L: 1/8
K: G
% - - - - - - - - - - - - - - - - - - - - - - - - -
de |\
d2G2 G2A2 | B6 AB | cdcB ABAG | FGA2 A2de |\
d2G2 G2A2 | B6 AB | cB AG FG AF | G6 :|\
AB |\
A2D2 D2E2 | F6 AB | A2D2 G2A2 | B6 Bc |
B2B2 e2B2 | c6 cB | ABAG FG AG | G2 E4 Bc |\
B2B2 e2B2 | c6 cB | A2A2 d2A2 | B6 de |\
d2d2 g2d2 | edcB A2d2 | edcB (cB) (AG) | G6 |]
% - - - - - - - - - - - - - - - - - - - - - - - - -
%%begintext align
%% The first man and second wo. set and turn single, then he turns her with his right-hand quite
%% round, the second man and first wo. do the same :| Fall back with your Partners and cross over,
%% then cross over back again, right and left quite round, and lead through the second couple. The
%% second Strain played once.
%% [DMDfD]
%%endtext
%%sep 1 8 500

%%sep 1 1 500
%%sep 1 1 500
